assets/images/icon-harvest.svg

<svg width="500" height="500" viewBox="0 0 500 500" fill="none" xmlns="http://www.w3.org/2000/svg">
<g clip-path="url(#clip0_1229_4081)">
<circle cx="250" cy="250" r="250" fill="#FA5D00"/>
<g clip-path="url(#clip1_1229_4081)">
<path fill-rule="evenodd" clip-rule="evenodd" d="M235.439 281.62V372.18H220.199V236.06C220.199 227.66 227.059 221.08 235.439 221.08H280.539V266.36C280.539 274.76 273.959 281.66 265.599 281.66H235.439V281.62Z" fill="white"/>
<path fill-rule="evenodd" clip-rule="evenodd" d="M311 129.9H325.94V356.88C325.94 365.28 319.08 372.18 311 372.18H295.76V205.46C295.76 197.06 302.62 190.46 311 190.46V129.9Z" fill="white"/>
<path fill-rule="evenodd" clip-rule="evenodd" d="M129.721 372.18V144.9C129.721 136.5 136.581 129.9 144.961 129.9H159.901V356.88C159.901 365.28 153.321 372.18 144.961 372.18H129.721Z" fill="white"/>
<path fill-rule="evenodd" clip-rule="evenodd" d="M189.901 372.18H174.961V145.2C174.961 136.8 181.821 129.9 189.901 129.9H205.141V296.62C205.141 305.02 198.281 311.62 189.901 311.62V372.18Z" fill="white"/>
<path fill-rule="evenodd" clip-rule="evenodd" d="M341.16 372.18V144.9C341.16 136.5 348.02 129.9 356.4 129.9H371.34V356.88C371.34 365.28 364.76 372.18 356.4 372.18H341.16Z" fill="white"/>
</g>
</g>
<defs>
<clipPath id="clip0_1229_4081">
<rect width="500" height="500" fill="white"/>
</clipPath>
<clipPath id="clip1_1229_4081">
<rect width="300" height="300" fill="white" transform="translate(100 100)"/>
</clipPath>
</defs>
</svg>

<svg fill="none" height="500" viewBox="0 0 500 500" width="500" xmlns="http://www.w3.org/2000/svg" xmlns:xlink="http://www.w3.org/1999/xlink"><clipPath id="a"><path d="m0 0h500v500h-500z"/></clipPath><clipPath id="b"><path d="m100 100h300v300h-300z"/></clipPath><g clip-path="url(#a)"><circle cx="250" cy="250" fill="#fa5d00" r="250"/><g clip-path="url(#b)" clip-rule="evenodd" fill="#fff" fill-rule="evenodd"><path d="m235.439 281.62v90.56h-15.24v-136.12c0-8.4 6.86-14.98 15.24-14.98h45.1v45.28c0 8.4-6.58 15.3-14.94 15.3h-30.16z"/><path d="m311 129.9h14.94v226.98c0 8.4-6.86 15.3-14.94 15.3h-15.24v-166.72c0-8.4 6.86-15 15.24-15z"/><path d="m129.721 372.18v-227.28c0-8.4 6.86-15 15.24-15h14.94v226.98c0 8.4-6.58 15.3-14.94 15.3z"/><path d="m189.901 372.18h-14.94v-226.98c0-8.4 6.86-15.3 14.94-15.3h15.24v166.72c0 8.4-6.86 15-15.24 15z"/><path d="m341.16 372.18v-227.28c0-8.4 6.86-15 15.24-15h14.94v226.98c0 8.4-6.58 15.3-14.94 15.3z"/></g></g></svg>
